X:1
T:James Gibb editions
T:Quemadmodum desiderat cervus - Foggia
T:#
%%score [ 1 2 3 ] 4
L:1/8
Q:1/4=96
M:4/4
K:C
V:1 treble nm="Soprano I" snm="S I"
V:2 treble nm="Soprano II" snm="S II"
V:3 bass nm="Bass" snm="B"
V:4 bass nm="Midi_20"
V:1
"^Quemadmodum desiderat cervus""^Francesco Foggia\n(1603-88)" G4 B3 B | B2 B2 A3 A | G4 A4 | %3
w: Quem- ad- mo-|dum de- si- de-|rat cer-|
 G2 z G (FEDE | FGAB c2) cA | (B^c d4 c2) |"^Iste sanctus pro lege Dei - Foggia" d4 A2 c2- | %7
w: vus ad fon\- * * *|* * * * * tes a-|qua\- * * *|rum, quem- ad\-|
 cc c2 c2 B2- | BA d4 ^c2 | d2 z F (EDCD | EFGA D2) G2 | z8 | z2 c2 (BAGA | B2 GA Bcde | %14
w: * mo- dum de- si\-|* de- rat cer-|vus ad fon\- * * *|* * * * * tes,||ad fon\- * * *||
 fFAG FGAB | ^c2) Bc d4- | d4 ^c4 | d8 ||[M:3/2][Q:1/4=192] z12 | z12 | z12 | z4 d4 g4 | f6 e2 d4 | %23
w: |* tes a- qua\-||rum,||||i- ta,|i- ta de-|
[M:3/2][Q:1/4=192][Q:1/4=192][Q:1/4=192][Q:1/4=192] e6 g2 ^f4 | g6 f2 e4- | e4 f8 | e4 (c6 B2 | %27
w: si- de- rat|a- ni- ma|* me-|a ad *|
 c4 B6 A2) | B4 (B6 A2 | B4 A6 G2 | A6 G2 A2 B2 | ^c8) d4- | d4 (d4 ^c4) | d4 (d6 c2 | d4 c6 B2 | %35
w: |te, ad *|||* te,|* De\- *|us, ad *||
 A2 G2 A6 G2 | A4 G6 F2 | G6 F2 G2 A2 | B8) c4- | c4 (c4 B4) | c12 | e4 d4 c4 | B6 B2 c4 | d8 d4 | %44
w: |||* te,|* De\- *|us.|Si- ti- vit|a- ni- ma|me- a|
 z12 | z12 | c4 B4 A4 | (f2 g2 f2 e2 d2 c2 | B4) (A4 B4) | (c4 B8) | A12 | c4 B4 A4 | f8 f4 | %53
w: ||ad De- um,|fon\- * * * * *|* tem *|vi\- *|vum,|ad De- um,|fon- tem,|
 d4 e4 f4 | (g2 a2 g2 f2 e2 d2 | ^c4) d8 | d8 ^c4 | d12 ||[M:4/4][Q:1/4=96] d2 B2 c2 A2 | %59
w: ad De- um,|fon\- * * * * *|* tem|vi\- *|vum:|quan- do, quan- do|
 (B2 c4) B2 |[M:4/4][Q:1/4=96][Q:1/4=96][Q:1/4=96][Q:1/4=96] c2 z G AGFD | GF (ED/E/ ^F2) EF | %62
w: ve\- * ni-|am et ap- pa- re- bo|an- te fa\- * * * ci- em|
 (G6 ^F2) | G2 d2 B2 c2 | A2 B2 G2 B2- | B2 B2 B3 B | c4 z efe | dBed (c3 B | A2) AA G4 | %69
w: tu\- *|am, quan- do, quan-|do, quan- do, quan\-|* do ve- ni-|am et ap- pa-|re- bo an- te fa\- *|* ci- em tu-|
 A2 z c dcBG | cB (AG/A/ B/c/A/B/ GA/B/ | c2) cc (c3 B) | c8 ||[M:3/2][Q:1/4=192] z12 | z12 | %75
w: am et ap- pa- re- bo|an- te fa\- * * * * * * * * *|* ci- em tu\- *|am?|||
[M:3/2][Q:1/4=192][Q:1/4=192][Q:1/4=192][Q:1/4=192] z12 | z12 | z4 g4 e4 | f4 d4 g4 | e4 d4 e4 | %80
w: ||Tu dul-|ce- do, tu|spes, tu dul-|
 c4 f4 d4 | e8 z4 | z12 | z4 z4 f4 | d4 e4 f4 | (f8 e4) | f4 f4 d4 | e8 c4 | z4 d4 B4 | %89
w: ce- do, tu|spes,||tu|vi- ta be-|a\- *|ta, tu dul-|ce- do,|tu dul-|
 e4 c4 A2 A2 | d4 c4 B4 | c8 e4 | (A2 G2 A2 B2 c2 d2 | e8 e4 | z4 d4 B4 | c4 A4 d4 | B8 G4 | %97
w: ce- do, tu dul-|ce- do, tu|spes, tu|vi\- * * * * *|* ta,|tu dul-|ce- do, tu|spes, tu|
 B8 e4 | (A2 G2 A2 B2 c2 d2 | e4) c4 e4 | d4 c4 B4 | c4 B4 A4 | B4 A4 G4 | A4 G4 F4 | E4) F4 G4 | %105
w: spes, tu|vi\- * * * * *|* ta, tu|vi- ta be-|a\- * *|||* ta, tu|
 A4 B4 c4 | (c8 B4) | c8 e4 | d12 | c8 c4 | B12 | A8 A4 | G4 F4 E4 | (A12- | A4 G4 F4 | G12- | %116
w: vi- ta be-|a\- *|ta, tu|vi-|ta, tu|vi\--|ta, tu|vi- ta be-|a\-|||
 G4 F4 E4 | F4) D4 d4- | d4 c4 A4 | f4 d8 | e12 | z12 | z4 z4 G4 | A6 B2 c4 | B4 G4 c4 | c6 c2 B4 | %126
w: |* ta, tu|* vi- ta|be- a-|ta.||Vo-|lu- ptas a-|ma- ta tu|lu- men et|
 c8 g4 | f6 e2 d4 | c8 G4 | A6 B2 c4 | B4 G4 c4 | c6 c2 B4 | c8 c4 | d6 c2 B4 | c8 f4 | e6 g2 ^f4 | %136
w: pax a-|man- ti- bus|es, vo-|lu- ptas a-|ma- ta tu|lu- men et|pax a-|man- ti- bus|es, a-|man- ti- bus|
 g8 d4 | c6 B2 A4 | B8 G4 | A6 G2 ^F4 | E8 A4 | c6 c2 d4 | e4 e4 g4 | f6 f2 e4 | d4 g8 | (f12 | %146
w: es, a-|man- ti- bus|es, tu|lu- men et|pax, vo-|lu- ptas a-|ma- ta tu|lu- men et|pax a-|man\-|
 e12 | d12 | c12 | B12 | A8) A4 | G8 B4 | (c4 A8 | B4 d4 G4 | A4 E4 ^F4 | G4 d4 e4 | f4 c4 d4- | %157
w: ||||ti- bus|es, a-|man\- *|||||
 d4 c8- | c4) c4 B4 | c12 | z12 | z12 | z12 | z12 | z4 g4 e4 | f4 d4 g4 | e4 d4 e4 | c4 f4 d4 | %168
w: |* ti- bus|es.|||||Tu dul-|ce- do, tu|spes, tu dul-|ce- do, tu|
 e12 | z12 | z4 z4 f4 | d4 e4 f4 | (f8 e4) | f4 f4 d4 | e8 c4 | z4 d4 B4 | e4 c4 A2 A2 | d4 c4 B4 | %178
w: spes,||tu|vi- ta be-|a\- *|ta, tu dul-|ce- do,|tu dul-|ce- do, tu dul-|ce- do, tu|
 c8 e4 | (A2 G2 A2 B2 c2 d2 | e8) e4 | z4 d4 B4 | c4 A4 d4 | B8 G4 | B8 e4 | (A2 G2 A2 B2 c2 d2 | %186
w: spes, tu|vi\- * * * * *|* ta,|tu dul-|ce- do, tu|spes, tu|spes, tu|vi\- * * * * *|
 e4) c4 e4 | d4 c4 B4 | c4 B4 A4 | c4 G4 A4 | (B6 c2 A2 B2 | G4) G4 ^F4 | G4 d4 e4 | ^f6 g2 e2 f2 | %194
w: * ta, tu|vi- ta be-|a- ta, tu|spes, tu dul-|ce\- * * *|* do, tu|spes, tu dul-|ce\- * * *|
 d4 d4 ^c4 | d4 f8 | e8 z4 | z4 a8 | g4 e4 d4 | c4 c4 B4 |[Q:1/4=189] c8[Q:1/4=185] z4 | %201
w: * do, tu|spes, tu|spes,|tu|spes, tu dul-|ce- do, tu|spes,|
[Q:1/4=182] z4[Q:1/4=180] d4[Q:1/4=177] c4 |[Q:1/4=175] B4[Q:1/4=172] A4[Q:1/4=170] A4 | %203
w: tu dul-|ce- do, tu|
[Q:1/4=164] B16 |] %204
w: spes.|
V:2
 z8 | z8 | z8 | d4 f3 f | f2 f2 e3 e | d4 e4 | d2 z d (cBAB | c2) AA (GFGE | F2 F)D G4 | %9
w: |||Quem- ad- mo-|dum de- si- de-|rat cer-|vus ad fon\- * * *|* tes, ad fon\- * * *|* tes a- qua-|
 A2 z A c3 c | c2 c2 B3 B | A4 B4 | A4 z2 e2 | (dcBc d4- | d2 cB ABcd | e6) fg | e8 | d8 || %18
w: rum, quem- ad- mo-|dum de- si- de-|rat cer-|vus ad|fon\- * * * *||* tes a-|qua-|rum,|
[M:3/2] z12 | z4 A4 d4 | c6 B2 A4 | B6 d2 ^c4 | d6 c2 B4 |[M:3/2] c8 A4 | z4 e6 d2 | c8 B4 | %26
w: |i- ta,|i- ta de-|si- de- rat|a- ni- ma|me- a,|a\-- ni-|ma me-|
 c4 (e6 d2 | e4 d6 c2 | d2 c2 d8) | d4 (d2 c2 d2 e2 | f4 e6 d2 | e8) e4- | e4 e8 | d4 (f6 e2 | %34
w: a ad *|||te, ad * * *||* te,|* De-|us, ad *|
 f4 e6 d2 | c2 B2 c8) | c4 (c2 B2 c2 d2 | e4 d6 c2 | d8) d4- | d4 d8 | e12 | c4 B4 A4 | ^G6 G2 A4 | %43
w: ||te, ad * * *||* te,|* De-|us.|Si- ti- vit|a- ni- ma|
 B8 B4 | G4 F4 E4 | c8 c4 | A4 B4 c4 | (d2 e2 d2 c2 B2 A2 | ^G4) A8 | (A8 ^G4) | A12 | z12 | z12 | %53
w: me- a|ad De- um,|fon- tem,|ad De- um,|fon\- * * * * *|* tem|vi\- *|vum,|||
 F4 E4 D4 | (_B2 c2 B2 A2 G2 F2 | E4 D4) E4 | (F4 E8) | D12 ||[M:4/4] z2 g2 e2 f2- | f2 e2 d3 d | %60
w: ad De- um,|fon\- * * * * *|* * tem|vi\- *|vum:|quan- do, quan\-|* do ve\-- ni-|
[M:4/4] e4 z cdc | BGcB A4- | A2 Bc A4 | G4 G2 E2 | F2 D2 (EFGE | ^F^G A4) G2 | A2 e2 c2 d2 | %67
w: am et ap- pa-|re- bo an- te fa\-|* ci- em tu-|am, quan- do,|quan- do ve\- * * *|* * * ni-|am, quan- do, quan-|
 B2 (c3 B AG/F/ | E2 F4) E2 | F4 z2 z d | eecA dc (Bc/d/ | e2) eg (d/e/f/e/ d2) | e8 || %73
w: do ve\- * * * *|* * ni-|am et|ap- pa- re- bo an- te fa\- * *|* ci- em tu\- * * * *|am?|
[M:3/2] z4 d4 B4 | c4 A4 d4 |[M:3/2] B8 G4 | (A2 G2 A2 B2 c2 d2 | B4) G4 c4 | (c8 B4) | c4 B4 c4 | %80
w: Tu dul-|ce- do tu|spes, tu|vi\- * * * * *|* ta be-|a\- *|ta, tu dul-|
 A4 d4 B4 | c8 z4 | z12 | z4 z4 A4 | F4 G4 A4 | (A4 G8) | F8 z4 | z4 g4 e4 | f8 d4 | z4 A4 F4 | %90
w: ce- do, tu|spes,||tu|vi- ta be-|a\- *|ta,|tu dul-|ce- do,|tu dul-|
 f4 e4 d4 | e8 c4 | (F2 E2 F2 G2 A2 B2 | c8 c4 | z4 B4 G4 | G4 G6 ^F2 | G8 B4 | d8 g4 | %98
w: ce- do, tu|spes, tu|vi\- * * * * *|* ta,|tu dul-|ce- do, tu|spes. tu|spes, tu|
 (c2 B2 c2 d2 e2 f2 | g4) e4 z4 | z4 z4 g4 | f4 e4 d4 | e4 d4 c4 | d4 e4 f4 | g12- | g4) f4 e4 | %106
w: vi\- * * * * *|* ta,|tu|vi- ta be-|a\- * *|||* ta, be-|
 (e4 d8) | c8 z4 | z4 z4 g4 | f12 | e8 e4 | d4 c4 d4 | (e12- | e4 d4 c4 | d12- | d4 c4 B4 | c12- | %117
w: a\- *|ta|tu|vi-|ta, tu|vi- ta be-|a\-|||||
 c4) B4 A4 | G4 C4 c4 | (c8 B4) | c8 G4 | A6 B2 c4 | B4 G4 g4 | g6 g2 ^f4 | g12 | z12 | z4 z4 c4 | %127
w: * ta, tu|vi- ta be-|a\- *|ta. Vo-|lu- ptas a-|ma- ta tu|lu- men et|pax,||vo-|
 d6 e2 f4 | e6 E2 G4 | G6 G2 ^F4 | G8 g4 | f6 e2 d4 | e8 A4 | A6 A2 ^G4 | A8 F4 | A6 B2 c4 | %136
w: lu- ptas a-|ma- ta tu|lu- men et|pax a-|man- ti- bus|es, tu|lu- men et|pax vo-|lu- ptas a-|
 B4 G4 G4 | E4 E4 e4 | d8 e4 | e6 e2 ^d4 | e8 c4 | e6 e2 f4 | g4 g4 e4 | d6 d2 c4 | B8 e4- | %145
w: ma- ta tu|lu- men, tu|lu- men,|lu- men et|pax, vo-|lu- ptas a-|ma- ta tu|lu- men et|pax a\-|
 e4 (d8- | d4 c8- | c4 B8- | B4 A8- | A4 G8- | G4 G4) ^F4 | G8 d4 | (e4 ^f8 | g4 G4 B4 | c4 A4 c4 | %155
w: * man\-|||||* ti- bus|es, a-|man\- *|||
 B4 G4 B4 | A6 B2 A4 | G6 A2 G4 | F4) D4 F4 | G8 z4 | z4 d4 B4 | c4 A4 d4 | B8 G4 | %163
w: |||* ti- bus|es.|Tu dul-|ce- do, tu|spes, tu|
 (A2 G2 A2 B2 c2 d2 | B4) G4 c4 | (c8 B4) | c4 B4 c4 | A4 d4 B4 | c12 | z12 | z4 z4 A4 | F4 G4 A4 | %172
w: vi\- * * * * *|* ta be-|a\- *|ta, tu dul-|ce- do, tu|spes,||tu|vi- ta be-|
 A4 G8 | F8 z4 | z4 g4 e4 | f8 d4 | z4 A4 F4 | f4 e4 d4 | e8 c4 | (F2 E2 F2 G2 A2 B2 | c8) c4 | %181
w: a\- *|ta,|tu dul-|ce- do,|tu dul-|ce- do, tu|spes, tu|vi\- * * * * *|* ta,|
 z4 B4 G4 | G4 G6 ^F2 | G8 B4 | d8 g4 | (c2 B2 c2 d2 e2 f2 | g4) e4 z4 | z4 z4 g4 | f4 e4 d4 | %189
w: tu dul-|ce- do, tu|spes, tu|spes, tu|vi\- * * * * *|* ta,|tu|vi- ta, tu|
 c8 z4 | z4 d4 c4 | B4 A4 A4 | B8 z4 | z4 A4 G4 | ^F4 E4 E4 | D4 d8 | ^c12 | z4 f8 | e4 g4 f4 | %199
w: spes,|tu dul-|ce- do, tu|spes,|tu dul-|ce- do, tu|spes, tu|spes,|tu|spes, tu dul-|
 e4 d4 d4 | c4 G4 A4 | (B6 c2 A2 B2 | G4) G4 ^F4 | G16 |] %204
w: ce- do, tu|spes, tu dui-|ce\- * * *|* do, tu|spes.|
V:3
 z8 | z8 | z8 | z8 | z8 | z8 | D,4 F,3 F, | F,2 F,2 E,3 E, | D,4 E,4 | D,2 z D, (C,B,,A,,B,, | %10
w: ||||||Quem- ad- mo-|dum de- si- de-|rat cer-|vus ad fon\- * * *|
 C,D,E,F, G,2) G,E, | (F,G, A,4) (^G,2 | A,2) z A, (G,F,E,F, | G,6 F,E, | D,6 C,B,, | %15
w: * * * * * tes a-|qua\- * * rum,|* ad fon\- * * *|||
 A,,4) G,,3 G,, | A,,8 | D,8 ||[M:3/2] z4 D,4 G,4 | F,6 E,2 D,4 | E,6 G,2 ^F,4 | G,6 F,2 E,4 | %22
w: * tes a-|qua-|rum,|i- ta,|i- ta de-|si- de- rat|a- ni- ma|
 D,8 G,,4 |[M:3/2] z12 | E,6 D,2 C,4- | C,4 D,8 | C,12 | z12 | z4 (G,6 ^F,2 | G,4 F,6 E,2 | %30
w: me- a||a- ni- ma|* me-|a||ad *||
 D,4 C,6 B,,2 | A,,8) G,,4- | G,,4 A,,8 | D,12 | z12 | z4 (F,6 E,2 | F,4 E,6 D,2 | C,4 B,,6 A,,2 | %38
w: |* te,|* De-|us,||ad *|||
 G,,8) F,,4- | F,,4 G,,8 | C,12 | C4 G,4 A,4 | E,6 E,2 A,4 | G,8 G,4 | z12 | C,4 B,,4 A,,4 | %46
w: * te,|* De-|us.|Si- ti- vit|a- ni- ma|me- a||ad De- um,|
 F,8 F,4 | D,12- | D,4 (C,4 D,4) | (E,4 E,,8) | A,,12 | z12 | F,4 E,4 D,4 | _B,8 B,4 | G,12- | %55
w: fon- tem,|fon\-|* tem *|vi\- *|vum,||ad De- um|fon- tem,|fon\-|
 G,4 (D,4 E,4) | (A,4 A,,8) | D,12 ||[M:4/4] z8 | G,2 E,2 F,D,G,G,, |[M:4/4] C,4 F,2 D,2 | %61
w: * tem *|vi\- *|vum:||quan- do, quan- do ve- ni-|am quan- do,|
 E,2 C,2 (D,2 C,D, | E,2) C,2 D,3 D, | G,,4 z G,A,G, | F,D,G,F, E,3 E, | D,4 E,4 | A,,4 A,2 F,2 | %67
w: quan- do, quan\- * *|* do ve- ni|am et ap- pa-|re- bo an- te fa- ci-|em tu-|am, quan- do,|
 G,2 E,2 (F,G,A,B, | C6) C,2 | F,,4 z F,G,F, | E,C,F,E, (D,C,/D,/ E,D, | C,2) A,,E,, G,,4 | C,8 || %73
w: quan- do ve\- * * *|* ni-|am et ap- pa-|re- bo an- te fa\- * * * *|* ci- em tu-|am?|
[M:3/2] z12 | z12 |[M:3/2] z12 | z12 | z12 | z12 | z4 G,4 E,4 | F,4 D,4 G,4 | C,8 C,4 | %82
w: ||||||Tu dul-|ce- do, tu|spes, tu|
 (D,2 C,2 D,2 E,2 F,2 G,2 | A,4) A,4 F,4 | _B,4 G,4 F,4 | (C4 C,8) | F,8 z4 | z12 | z4 z4 G,4 | %89
w: vi\- * * * * *|* ta, tu|vi- ta be-|a\- *|ta,||tu|
 E,4 F,8 | D,4 G,8 | C,8 z4 | z4 z4 F,4 | (C,2 B,,2 C,2 D,2 E,2 F,2 | G,6) D,2 E,4 | C,4 D,6 D,2 | %96
w: dul- ce-|do, tu|spes,|tu|vi\- * * * * *|* ta, tu|vi- ta be-|
 G,,8 G,,4 | z4 G,4 E,4 | F,4 E,6 D,2 | C,8 C4 | B,4 A,4 G,4 | (A,4 G,4 F,4 | G,4 F,4 E,4 | %103
w: a- ta,|tu dul-|ce- do, tu|spes, tu|vi- ta be-|a\- * *||
 F,4 E,4 D,4 | C,4) D,4 E,4 | F,4 G,4 A,4 | (G,4 G,,8) | C,8 C4 | B,12 | A,8 A,4 | G,12 | F,8 F,4 | %112
w: |* ta, tu|vi- ta be-|a\- *|ta, tu|vi-|ta, tu|vi-|ta, tu|
 E,4 D,4 C,4 | (F,12- | F,4 E,4 D,4 | E,12- | E,4 D,4 C,4 | D,4) D,4 D,4 | E,4 E,4 F,4- | F,4 G,8 | %120
w: vi- ta be-|a\-||||* ta, tu|vi- ta be\-|* a-|
 C,12 | z12 | z12 | z12 | z4 z4 C,4 | D,6 E,2 F,4 | E,4 C,4 C4 | C6 C2 B,4 | C8 z4 | z12 | %130
w: ta.||||Vo-|lu- ptas a-|ma- ta tu|lu- men et|pax,||
 z4 z4 C,4 | D,6 E,2 F,4 | E,6 C,2 F,4 | D,6 A,,2 E,4 | A,,8 D,4 | C,6 B,,2 A,,4 | G,,8 G,4 | %137
w: vo-|lu- ptas a-|ma- ta tu|lu- men et|pax a-|man- ti- bus|es, vo-|
 A,6 B,2 C4 | B,6 G,2 C4 | A,6 E,2 B,4 | E,8 F,4 | E,6 E,2 D,4 | C,8 C,4 | D,6 D,2 E,4 | G,8 G,4 | %145
w: lu- ptas a-|ma- ta tu|lu- men et|pax a-|man- ti- bus|es, tu|lu- men et|pax a-|
 (A,4 B,8 | C4 C,4 E,4 | F,4 G,4 D,4 | E,4 F,4 C,4 | D,4 E,4 B,,4 | C,4 D,6) D,2 | G,12 | C12 | %153
w: man\- *|||||* ti- bus|es,|a-|
 (B,8 B,4 | A,8 A,4 | G,8 G,4 | F,8 F,4 | E,8) E,4 | D,12 | C,12 | z12 | z12 | z12 | z12 | z12 | %165
w: man\- *||||* ti-|bus|es.||||||
 z12 | z4 G,4 E,4 | F,4 D,4 G,4 | C,8 C,4 | (D,2 C,2 D,2 E,2 F,2 G,2 | A,4) A,4 F,4 | %171
w: |tu dul-|ce- do, tu|spes, tu|vi\- * * * * *|* ta, tu|
 _B,4 G,4 F,4 | (C4 C,8) | F,8 z4 | z12 | z4 z4 G,4 | E,4 F,8 | D,4 G,8 | C,12 | z4 z4 F,4 | %180
w: vi- ta be-|a\- *|ta,||tu|dul- ce-|do, tu|spes,|tu|
 (C,2 B,,2 C,2 D,2 E,2 F,2 | G,6) D,2 E,4 | C,4 D,6 D,2 | G,,8 G,,4 | z4 G,4 E,4 | F,4 E,6 D,2 | %186
w: vi\- * * * * *|* ta, tu|vi- ta be-|a- ta,|tu dul-|ce- do, tu|
 C,8 C4 | B,4 A,4 G,4 | A,4 G,4 F,4 | C,8 z4 | z4 G,4 A,4 | B,4 C4 D4- | G,8 z4 | z4 D,4 E,4 | %194
w: spes, tu|vi- ta be-|a- ta, tu|spes,|tu dul-|ce- do, tu|spes,|tu dul-|
 ^F,4 G,4 A,4 | D,12 | z4 A,8 | F,12 | z4 C,4 D,4 | E,4 F,4 G,4 | C,12 | z4 G,4 A,4 | B,4 C4 D4 | %203
w: ce- do, tu|spes,|tu|spes,|tu dul-|ce- do, tu|spes,|tu dul-|ce- do, tu|
 G,16 |] %204
w: spes.|
V:4
 G,6 D,2 | E,2 B,,C, D,C, D,2 | G,F,E,D, C,A,, D,2 | G,,A,,B,,C, D,4 | D,E,F,G, A,2 E,F, | %5
w: |* * * * * 4~~3|* * * * 6 * *||* * * * * 6 *|
w: ||* * * * 5 * *|||
 G,A,_B,F, G,E,A,A,, | D,4 F,3 F, | F,2 F,2 E,4 | D,4 E,4 | D,4 C,2 A,,2 | C,D,E,F, G,G,,B,,C, | %11
w: ||* * 6~~~~~~~~5|6~~~~~~5 7~~~~6||* * * * * * 6 *|
w: ||||||
 D,E,F,C, D,2 E,2 | A,,2 A,2 G,2 E,2 | G,6 F,E, | D,6 C,B,, | A,,4 G,,4 | A,,8 | D,8 || %18
w: * * * 6 6 *||||* 6|||
w: * * * * 5 *||||* 5|||
[M:3/2] D,8 G,4 | F,6 E,2 D,4 | E,6 G,2 ^F,4 | G,6 F,2 E,4 | D,8 G,,4 |[M:3/2] C,8 D,4 | %24
w: |||* * 6|||
w: ||||||
 E,6 D,2 C,4 | C,4 D,8 | C,12 | C,12 | G,,4 G,6 ^F,2 | G,4 F,6 E,2 | D,4 C,6 B,,2 | A,,8 G,,4- | %32
w: |* 7~~~6||||* 6 *||* 6|
w: |||||||* 5|
 G,,4 A,,8 | D,12 | D,4 E,8 | F,4 F,6 E,2 | F,4 E,6 D,2 | C,4 B,,6 A,,2 | G,,8 F,,4- | F,,4 G,,8 | %40
w: ||* 6~~~~5||* 6 *||* 6||
w: ||||||* 5||
 C,12 | C4 G,4 A,4 | E,8 A,4 | G,8 G,4 | C,8 C,4 | C,4 B,,4 A,,4 | F,8 F,4 | D,12- | D,4 C,4 D,4 | %49
w: ||||||||6 6 6|
w: ||||||||4 * *|
 E,4 E,,8 | A,,8 A,4 | F,8 F,4 | F,4 E,4 D,4 | _B,8 B,4 | G,12- | G,4 F,4 G,4 | A,4 A,,8 | D,12 || %58
w: * 6~~~5||||||6 6 6|* 6~~~~4||
w: * 4~~~3||||||4 * *|* 5~~~~3||
[M:4/4] G,4 A,2 F,2 | G,2 E,2 F,D, G,2 |[M:4/4] C,D,E,C, F,2 D,2 | E,2 C,2 D,2 C,D, | E,2 C,2 D,4 | %63
w: |7 * 6 * *|||4 * 4~~~~3|
w: |* * 5 * *|||3 * *|
 G,,4 G,2 A,G, | F,D,G,F, E,4 | D,4 E,4 | A,,4 A,2 F,2 | G,2 E,2 F,G,A,B, | C4 C,4 | F,4 F,2 G,2 | %70
w: ||6 *|* * 6|* 6 * * * *|* 4~~3|* 6 *|
w: ||5 *|||||
 E,C,F,E, D,2 E,2 | C,2 A,,E,, G,,4 | C,8 ||[M:3/2] G,,8 G,4 | E,4 ^F,4 D,4 |[M:3/2] G,8 E,4 | %76
w: ||||6 * *||
w: ||||||
 F,6 G,2 A,4 | G,4 E,4 A,4 | F,4 G,4 G,,4 | C,4 G,4 E,4 | F,4 D,4 G,4 | C,8 C,4 | D,6 E,2 F,2 G,2 | %83
w: |||||||
w: |||||||
 A,4 A,4 F,4 | _B,4 G,4 F,4 | C4 C,8 | F,4 D,4 G,4 | E,8 A,4 | F,4 D,4 G,4 | E,4 F,8 | D,4 G,8 | %91
w: |* 6 *|||||||
w: ||||||||
 C,8 C,4 | D,4 F,8 | C,6 D,2 E,2 F,2 | G,6 D,2 E,4 | C,4 D,6 D,2 | G,,8 G,,4 | G,4 G,4 E,4 | %98
w: ||||6 * *|||
w: ||||5 * *|||
 F,4 E,6 D,2 | C,8 C4 | B,4 A,4 G,4 | A,4 G,4 F,4 | G,4 F,4 E,4 | F,4 E,4 D,4 | C,4 D,4 E,4 | %105
w: |||||||
w: |||||||
 F,4 G,4 A,4 | G,4 G,,8 | C,8 C,4 | B,,8 B,,4 | A,,8 A,4 | G,8 G,4 | F,8 F,4 | E,4 D,4 C,4 | %113
w: ||||||||
w: ||||||||
 F,12- | F,4 E,4 D,4 | E,12- | E,4 D,4 C,4 | D,8 D,4 | E,8 F,4- | F,4 G,8 | C,4 C4 B,4 | A,8 A,4 | %122
w: 7~~~~6~~~~5|6 * *|7~~~~6~~~~5|6 * *|7~~~~6 5|7~~~~6 *|* 4~~~~~~3||7~~~~~~~~6 *|
w: |||||||||
 G,8 B,,4 | C,4 D,8 | G,4 E,4 C,4 | D,12 | C,8 C4 | C8 B,4 | C8 B,4 | A,8 A,4 | G,4 E,4 C,4 | %131
w: |6 *||||||7~~~~~~~6 *||
w: |5 *||||||||
 D,8 D,4 | C,8 F,4 | D,6 A,,2 E,4 | A,,8 D,4 | C,6 B,,2 A,,4 | G,,8 G,4 | A,6 B,2 C4 | B,6 G,2 C4 | %139
w: 7~~~~~~6 *||||* * 6||* * 6||
w: ||||||||
 A,6 E,2 B,4 | E,8 F,4 | E,4 E,4 D,4 | C,8 C,4 | D,8 E,4 | G,8 G,4 | A,4 B,8 | C4 C,4 E,4 | %147
w: ||6 * *||* 6||6 *|9 * *|
w: ||||||||
 F,4 G,4 D,4 | E,4 F,4 C,4 | D,4 E,4 B,,4 | C,4 D,6 D,2 | G,,12 | C,4 C,8 | B,,8 B,,4 | A,,8 A,,4 | %155
w: 6 * *|6 * *||||5 6|6 *|~~~~~~~5 6|
w: 5 * *|5 * *||||* 4|||
 G,,8 G,4 | F,8 F,4 | E,8 E,4 | D,8 D,4 | C,4 E,4 C,4 | G,4 G,,4 G,4 | E,4 ^F,4 D,4 | G,8 E,4 | %163
w: 5 6|6 *|7~~~~~6 *|7~~~~~6 *|||||
w: ||||||||
 F,6 G,2 A,4 | G,4 E,4 A,4 | F,4 G,4 G,,4 | C,4 G,4 E,4 | F,4 D,4 G,4 | C,8 C,4 | D,6 E,2 F,2 G,2 | %170
w: |||||||
w: |||||||
 A,4 A,4 F,4 | _B,4 G,4 F,4 | C,4 C,8 | F,4 D,4 G,4 | E,8 A,4 | F,4 D,4 G,4 | E,4 F,8 | D,8 G,4 | %178
w: |* 6 *|4~~3 *||||||
w: ||||||||
 C,8 C,4 | D,4 F,8 | C,6 D,2 E,2 F,2 | G,6 D,2 E,4 | C,4 D,6 D,2 | G,,8 G,,4 | G,4 G,4 E,4 | %185
w: |||||||
w: |||||||
 F,4 E,6 D,2 | C,8 C4 | B,4 A,4 G,4 | A,4 G,4 F,4 | C,4 C4 A,4 | G,8 A,4 | B,4 C4 D4 | G,12 | %193
w: |||||||5~~~~~~~~6|
w: ||||||||
 D,8 E,4 | ^F,4 G,4 A,4 | D,12 | A,8 A,4 | F,8 F,4 | C,4 C,4 D,4 | E,4 F,4 G,4 | C,8 C,4 | %201
w: |* 6 *|||||6 6 *|* 6|
w: |* 5 *|||||* 5 *||
 G,,4 G,4 A,4 | B,4 C4 D4 | G,16 |] %204
w: |6 6 *||
w: |||

